X: 10674
T: Down The Glen
R: hornpipe
M: 4/4
K: Dmajor
|:A>F|D2 (3FGA B2 d2|A>DF>A d2 (3Bcd|e>Ac>e f2 f>a|(3efe (3dcB (3ABA (3GFE|
D2 F>A B2 (3Bcd|A>DF>A d2 (3Bcd|e>Ac>e f>a (3edc|d2 d>c d2:|
|:c>d|e>Ac>e f2 (3f^ga|e>Ac>e f2 f>a|e>a^g>f (3efe (3dcB|A>a^GF>a A2 A>G|
F>DF>A d2 f>a|g>dB>d g2 a>g|f>Ad>f e>Ac>e|d2 (3edc d2:|

